_includes/icons/color-envelope.svg

<svg fill="#666" height="50" viewBox="0 0 48 48" width="50" xmlns="http://www.w3.org/2000/svg"><path d="m40 10h-32c-2.210937 0-4 1.789063-4 4v20c0 2.210938 1.789063 4 4 4h32c2.210938 0 4-1.789062 4-4v-20c0-2.210937-1.789062-4-4-4z" fill="#2196f3"/><path d="m44 14.023438c0-.464844-.09375-.902344-.238281-1.320313l-19.761719 14.320313-19.757812-14.320313c-.148438.417969-.242188.859375-.242188 1.320313v.976562l20 14.496094 20-14.496094z" fill="#0d47a1"/></svg>

<svg xmlns="http://www.w3.org/2000/svg" viewBox="0 0 48 48" width="50" height="50" fill="#666"><path d="M 40 10 L 8 10 C 5.789063 10 4 11.789063 4 14 L 4 34 C 4 36.210938 5.789063 38 8 38 L 40 38 C 42.210938 38 44 36.210938 44 34 L 44 14 C 44 11.789063 42.210938 10 40 10 Z" fill="#2196f3"/><path d="M 44 14.023438 C 44 13.558594 43.90625 13.121094 43.761719 12.703125 L 24 27.023438 L 4.242188 12.703125 C 4.09375 13.121094 4 13.5625 4 14.023438 L 4 15 L 24 29.496094 L 44 15 Z" fill="#0d47a1"/></svg>
